SVG_Azure_All/Azure Lighthouse Management.svg

<?xml version="1.0" encoding="UTF-8" standalone="no"?>
<!-- Generated by Microsoft Visio, SVG Export Azure Lighthouse Management.svg Page-1 -->

<svg
   xmlns:dc="http://purl.org/dc/elements/1.1/"
   xmlns:cc="http://creativecommons.org/ns#"
   xmlns:rdf="http://www.w3.org/1999/02/22-rdf-syntax-ns#"
   xmlns:svg="http://www.w3.org/2000/svg"
   xmlns="http://www.w3.org/2000/svg"
   xmlns:sodipodi="http://sodipodi.sourceforge.net/DTD/sodipodi-0.dtd"
   xmlns:inkscape="http://www.inkscape.org/namespaces/inkscape"
   width="0.78743857in"
   height="0.70873165in"
   viewBox="0 0 56.695575 51.028597"
   xml:space="preserve"
   class="st19"
   version="1.1"
   id="svg114"
   sodipodi:docname="Azure Lighthouse Management.svg"
   style="font-size:12px;overflow:visible;color-interpolation-filters:sRGB;fill:none;fill-rule:evenodd;stroke-linecap:square;stroke-miterlimit:3"
   inkscape:version="0.92.5 (2060ec1f9f, 2020-04-08)"><metadata
   id="metadata120"><rdf:RDF><cc:Work
       rdf:about=""><dc:format>image/svg+xml</dc:format><dc:type
         rdf:resource="http://purl.org/dc/dcmitype/StillImage" /></cc:Work></rdf:RDF></metadata><defs
   id="defs118" /><sodipodi:namedview
   pagecolor="#ffffff"
   bordercolor="#666666"
   borderopacity="1"
   objecttolerance="10"
   gridtolerance="10"
   guidetolerance="10"
   inkscape:pageopacity="0"
   inkscape:pageshadow="2"
   inkscape:window-width="640"
   inkscape:window-height="480"
   id="namedview116"
   showgrid="false"
   inkscape:zoom="1.963572"
   inkscape:cx="37.795281"
   inkscape:cy="14.740334"
   inkscape:window-x="0"
   inkscape:window-y="0"
   inkscape:window-maximized="0"
   inkscape:current-layer="svg114" />
	<style
   type="text/css"
   id="style2">
	<![CDATA[
		.st1 {fill:#00aa00;fill-opacity:0;stroke:#7b30a0;stroke-linecap:butt;stroke-opacity:0;stroke-width:0.0737008}
		.st2 {fill:#353564;fill-opacity:0;stroke:none;stroke-linecap:butt;stroke-width:0.00846873}
		.st3 {fill:#afafde;fill-opacity:0;stroke:none;stroke-linecap:butt;stroke-width:0.00846873}
		.st4 {fill:#e9e9ff;fill-opacity:0;stroke:none;stroke-linecap:butt;stroke-width:0.00846873}
		.st5 {fill:#4d4d9f;fill-opacity:0;stroke:none;stroke-linecap:butt;stroke-width:0.00846873}
		.st6 {fill:#d7d7ff;fill-opacity:0;stroke:none;stroke-linecap:butt;stroke-width:0.00846873}
		.st7 {fill:#8686bf;fill-opacity:0;stroke:none;stroke-linecap:butt;stroke-width:0.00846873}
		.st8 {fill:#0179d3;stroke:none;stroke-linecap:butt;stroke-width:2.58992}
		.st9 {fill:#59b4d9;stroke:none;stroke-linecap:butt;stroke-width:0.720064}
		.st10 {fill:#59b4d9;stroke:none;stroke-linecap:butt;stroke-width:0.95935}
		.st11 {fill:#ffffff;stroke:none;stroke-linecap:butt;stroke-width:0.550364}
		.st12 {fill:#ffffff;stroke:none;stroke-linecap:butt;stroke-width:0.321031}
		.st13 {fill:#ffffff;stroke:none;stroke-linecap:butt;stroke-width:0.223851}
		.st14 {fill:#ffffff;stroke:none;stroke-linecap:butt;stroke-width:0.156999}
		.st15 {fill:#ffffff;stroke:none;stroke-linecap:butt;stroke-width:0.118474}
		.st16 {fill:#ffffff;fill-opacity:0;stroke:none;stroke-linecap:butt;stroke-width:0.0737008}
		.st17 {fill:#0179d3;stroke:none;stroke-linecap:butt;stroke-width:3.77358}
		.st18 {fill:#0179d3;stroke:none;stroke-linecap:butt;stroke-width:0.350543}
		.st19 {fill:none;fill-rule:evenodd;font-size:12px;overflow:visible;stroke-linecap:square;stroke-miterlimit:3}
	]]>
	</style>

	<g
   id="g112"
   transform="translate(-5.66929,-5.0974925)">
		<title
   id="title4">Page-1</title>
		<g
   id="group7997-1"
   transform="translate(5.66929,-34.0157)">
			<title
   id="title6">Azure Lighthouse Management</title>
			<g
   id="shape7998-2"
   transform="translate(1.66229,-10.7757)">
				<title
   id="title8">rect848</title>
				<rect
   x="0"
   y="61.222198"
   width="48.468899"
   height="28.9195"
   class="st1"
   id="rect10"
   style="fill:#00aa00;fill-opacity:0;stroke:#7b30a0;stroke-width:0.0737008;stroke-linecap:butt;stroke-opacity:0" />
			</g>
			<g
   id="group7999-4"
   transform="translate(10.5978,-11.1564)">
				<title
   id="title13">g882</title>
				<g
   id="shape8000-5"
   transform="translate(0,-0.131007)">
					<title
   id="title15">path884</title>
					<path
   d="m 0,85.79 v 4.35 l 2.52,-0.18 v -3.54 z"
   class="st2"
   id="path17"
   inkscape:connector-curvature="0"
   style="fill:#353564;fill-opacity:0;stroke:none;stroke-width:0.00846873;stroke-linecap:butt" />
				</g>
				<g
   id="shape8001-7">
					<title
   id="title20">path892</title>
					<path
   d="M 0,90.01 1.49,90.14 3.97,89.91 2.52,89.82 Z"
   class="st3"
   id="path22"
   inkscape:connector-curvature="0"
   style="fill:#afafde;fill-opacity:0;stroke:none;stroke-width:0.00846873;stroke-linecap:butt" />
				</g>
				<g
   id="shape8002-9"
   transform="translate(2.51659,-0.232039)">
					<title
   id="title25">path894</title>
					<path
   d="m 0,86.52 1.45,-0.29 v 3.91 L 0,90.06 Z"
   class="st4"
   id="path27"
   inkscape:connector-curvature="0"
   style="fill:#e9e9ff;fill-opacity:0;stroke:none;stroke-width:0.00846873;stroke-linecap:butt" />
				</g>
				<g
   id="shape8003-11"
   transform="translate(0,-3.85678)">
					<title
   id="title30">path886</title>
					<path
   d="m 0,89.52 1.49,-0.44 2.48,0.78 -1.45,0.28 z"
   class="st5"
   id="path32"
   inkscape:connector-curvature="0"
   style="fill:#4d4d9f;fill-opacity:0;stroke:none;stroke-width:0.00846873;stroke-linecap:butt" />
				</g>
				<g
   id="shape8004-13"
   transform="translate(1.49315)">
					<title
   id="title35">path890</title>
					<path
   d="m 0,85.22 v 4.92 L 2.47,89.91 V 86 Z"
   class="st6"
   id="path37"
   inkscape:connector-curvature="0"
   style="fill:#d7d7ff;fill-opacity:0;stroke:none;stroke-width:0.00846873;stroke-linecap:butt" />
				</g>
				<g
   id="shape8005-15">
					<title
   id="title40">path888</title>
					<path
   d="m 0,85.66 1.49,-0.44 v 4.92 L 0,90.01 Z"
   class="st7"
   id="path42"
   inkscape:connector-curvature="0"
   style="fill:#8686bf;fill-opacity:0;stroke:none;stroke-width:0.00846873;stroke-linecap:butt" />
				</g>
			</g>
			<g
   id="shape8006-17">
				<title
   id="title46">rect896</title>
				<rect
   x="0"
   y="47.959801"
   width="56.692902"
   height="42.181999"
   class="st8"
   id="rect48"
   style="fill:#0179d3;stroke:none;stroke-width:2.58992004;stroke-linecap:butt" />
			</g>
			<g
   id="shape8007-19"
   transform="translate(0,-41.6294)">
				<title
   id="title51">rect898</title>
				<path
   d="m 0,89.7 a 0.415583,0.437487 -180 0 0 0.415573,0.437477 L 56.28,90.14 a 0.415583,0.437487 -180 0 0 0.415573,-0.437477 L 56.69,81.18 A 0.415583,0.437487 -180 0 0 56.274427,80.742523 L 0.42,80.75 a 0.415583,0.437487 -180 0 0 -0.415573,0.437477 z"
   class="st9"
   id="path53"
   inkscape:connector-curvature="0"
   style="fill:#59b4d9;stroke:none;stroke-width:0.72006398;stroke-linecap:butt" />
			</g>
			<g
   id="shape8008-21"
   transform="translate(38.1452,-6.26283)">
				<title
   id="title56">rect900</title>
				<rect
   x="0"
   y="61.037998"
   width="7.26159"
   height="29.103701"
   class="st10"
   id="rect58"
   style="fill:#59b4d9;stroke:none;stroke-width:0.95934999;stroke-linecap:butt" />
			</g>
			<g
   id="shape8009-23"
   transform="translate(31.3211,-6.26284)">
				<title
   id="title61">rect900-3</title>
				<rect
   x="0"
   y="74.853104"
   width="4.5494299"
   height="15.2887"
   class="st11"
   id="rect63"
   style="fill:#ffffff;stroke:none;stroke-width:0.55036402;stroke-linecap:butt" />
			</g>
			<g
   id="shape8010-25"
   transform="translate(26.3342,-6.26284)">
				<title
   id="title66">rect900-3-7</title>
				<rect
   x="0"
   y="81.944801"
   width="2.88714"
   height="8.1969404"
   class="st12"
   id="rect68"
   style="fill:#ffffff;stroke:none;stroke-width:0.321031;stroke-linecap:butt" />
			</g>
			<g
   id="shape8011-27"
   transform="translate(22.0472,-6.26284)">
				<title
   id="title71">rect900-3-7-6</title>
				<rect
   x="0"
   y="85.444603"
   width="2.4496901"
   height="4.6971202"
   class="st13"
   id="rect73"
   style="fill:#ffffff;stroke:none;stroke-width:0.223851;stroke-linecap:butt" />
			</g>
			<g
   id="shape8012-29"
   transform="translate(18.4602,-6.26284)">
				<title
   id="title76">rect900-3-7-6-2</title>
				<rect
   x="0"
   y="87.201103"
   width="1.92476"
   height="2.94067"
   class="st14"
   id="rect78"
   style="fill:#ffffff;stroke:none;stroke-width:0.15699901;stroke-linecap:butt" />
			</g>
			<g
   id="shape8013-31"
   transform="translate(15.2231,-6.26284)">
				<title
   id="title81">rect900-3-7-6-2-7</title>
				<rect
   x="0"
   y="88.299698"
   width="1.7497801"
   height="1.84201"
   class="st15"
   id="rect83"
   style="fill:#ffffff;stroke:none;stroke-width:0.118474;stroke-linecap:butt" />
			</g>
			<g
   id="shape8014-33"
   transform="translate(3.54308,-36.8132)">
				<title
   id="title86">path977</title>
				<ellipse
   cx="4.88726"
   cy="84.475899"
   rx="4.88726"
   ry="5.6658602"
   class="st16"
   id="ellipse88"
   style="fill:#ffffff;fill-opacity:0;stroke:none;stroke-width:0.0737008;stroke-linecap:butt" />
			</g>
			<g
   id="shape8015-35"
   transform="translate(0,-34.5253)">
				<title
   id="title91">rect1203</title>
				<rect
   x="0"
   y="82.485001"
   width="56.692902"
   height="7.6567101"
   class="st17"
   id="rect93"
   style="fill:#0179d3;stroke:none;stroke-width:3.77358007;stroke-linecap:butt" />
			</g>
			<g
   id="shape8016-37"
   transform="translate(3.8524,-45.3446)">
				<title
   id="title96">path981</title>
				<ellipse
   cx="1.33008"
   cy="88.741501"
   rx="1.33008"
   ry="1.40018"
   class="st18"
   id="ellipse98"
   style="fill:#0179d3;stroke:none;stroke-width:0.35054299;stroke-linecap:butt" />
			</g>
			<g
   id="shape8017-39"
   transform="translate(8.02824,-45.312)">
				<title
   id="title101">path981-6</title>
				<ellipse
   cx="1.33008"
   cy="88.741501"
   rx="1.33008"
   ry="1.40018"
   class="st18"
   id="ellipse103"
   style="fill:#0179d3;stroke:none;stroke-width:0.35054299;stroke-linecap:butt" />
			</g>
			<g
   id="shape8018-41"
   transform="translate(12.1731,-45.3772)">
				<title
   id="title106">path981-6-3</title>
				<ellipse
   cx="1.33008"
   cy="88.741501"
   rx="1.33008"
   ry="1.40018"
   class="st18"
   id="ellipse108"
   style="fill:#0179d3;stroke:none;stroke-width:0.35054299;stroke-linecap:butt" />
			</g>
		</g>
	</g>
</svg>

<?xml version="1.0" encoding="UTF-8" standalone="no"?>
<!DOCTYPE svg PUBLIC "-//W3C//DTD SVG 1.1//EN" "http://www.w3.org/Graphics/SVG/1.1/DTD/svg11.dtd">
<!-- Generated by Microsoft Visio, SVG Export Azure Lighthouse Management.svg Page-1 -->
<svg xmlns="http://www.w3.org/2000/svg" xmlns:xlink="http://www.w3.org/1999/xlink" xmlns:ev="http://www.w3.org/2001/xml-events"
		width="0.944882in" height="1.25197in" viewBox="0 0 68.0315 90.1417" xml:space="preserve" color-interpolation-filters="sRGB"
		class="st19">
	<style type="text/css">
	<![CDATA[
		.st1 {fill:#00aa00;fill-opacity:0;stroke:#7b30a0;stroke-linecap:butt;stroke-opacity:0;stroke-width:0.0737008}
		.st2 {fill:#353564;fill-opacity:0;stroke:none;stroke-linecap:butt;stroke-width:0.00846873}
		.st3 {fill:#afafde;fill-opacity:0;stroke:none;stroke-linecap:butt;stroke-width:0.00846873}
		.st4 {fill:#e9e9ff;fill-opacity:0;stroke:none;stroke-linecap:butt;stroke-width:0.00846873}
		.st5 {fill:#4d4d9f;fill-opacity:0;stroke:none;stroke-linecap:butt;stroke-width:0.00846873}
		.st6 {fill:#d7d7ff;fill-opacity:0;stroke:none;stroke-linecap:butt;stroke-width:0.00846873}
		.st7 {fill:#8686bf;fill-opacity:0;stroke:none;stroke-linecap:butt;stroke-width:0.00846873}
		.st8 {fill:#0179d3;stroke:none;stroke-linecap:butt;stroke-width:2.58992}
		.st9 {fill:#59b4d9;stroke:none;stroke-linecap:butt;stroke-width:0.720064}
		.st10 {fill:#59b4d9;stroke:none;stroke-linecap:butt;stroke-width:0.95935}
		.st11 {fill:#ffffff;stroke:none;stroke-linecap:butt;stroke-width:0.550364}
		.st12 {fill:#ffffff;stroke:none;stroke-linecap:butt;stroke-width:0.321031}
		.st13 {fill:#ffffff;stroke:none;stroke-linecap:butt;stroke-width:0.223851}
		.st14 {fill:#ffffff;stroke:none;stroke-linecap:butt;stroke-width:0.156999}
		.st15 {fill:#ffffff;stroke:none;stroke-linecap:butt;stroke-width:0.118474}
		.st16 {fill:#ffffff;fill-opacity:0;stroke:none;stroke-linecap:butt;stroke-width:0.0737008}
		.st17 {fill:#0179d3;stroke:none;stroke-linecap:butt;stroke-width:3.77358}
		.st18 {fill:#0179d3;stroke:none;stroke-linecap:butt;stroke-width:0.350543}
		.st19 {fill:none;fill-rule:evenodd;font-size:12px;overflow:visible;stroke-linecap:square;stroke-miterlimit:3}
	]]>
	</style>

	<g>
		<title>Page-1</title>
		<g id="group7802-1" transform="translate(5.66929,-34.0157)">
			<title>Azure Lighthouse Management</title>
			<g id="shape7803-2" transform="translate(1.66229,-10.7757)">
				<title>rect848</title>
				<rect x="0" y="61.2222" width="48.4689" height="28.9195" class="st1"/>
			</g>
			<g id="group7804-4" transform="translate(10.5978,-11.1564)">
				<title>g882</title>
				<g id="shape7805-5" transform="translate(1.9984E-14,-0.131007)">
					<title>path884</title>
					<path d="M0 85.79 L0 90.14 L2.52 89.96 L2.52 86.42 L0 85.79 Z" class="st2"/>
				</g>
				<g id="shape7806-7">
					<title>path892</title>
					<path d="M0 90.01 L1.49 90.14 L3.97 89.91 L2.52 89.82 L0 90.01 Z" class="st3"/>
				</g>
				<g id="shape7807-9" transform="translate(2.51659,-0.232039)">
					<title>path894</title>
					<path d="M0 86.52 L1.45 86.23 L1.45 90.14 L0 90.06 L0 86.52 Z" class="st4"/>
				</g>
				<g id="shape7808-11" transform="translate(0,-3.85678)">
					<title>path886</title>
					<path d="M0 89.52 L1.49 89.08 L3.97 89.86 L2.52 90.14 L0 89.52 Z" class="st5"/>
				</g>
				<g id="shape7809-13" transform="translate(1.49315,0)">
					<title>path890</title>
					<path d="M0 85.22 L0 90.14 L2.47 89.91 L2.47 86 L0 85.22 Z" class="st6"/>
				</g>
				<g id="shape7810-15">
					<title>path888</title>
					<path d="M0 85.66 L1.49 85.22 L1.49 90.14 L0 90.01 L0 85.66 Z" class="st7"/>
				</g>
			</g>
			<g id="shape7811-17">
				<title>rect896</title>
				<rect x="0" y="47.9598" width="56.6929" height="42.182" class="st8"/>
			</g>
			<g id="shape7812-19" transform="translate(0,-41.6294)">
				<title>rect898</title>
				<path d="M0 89.7 a0.415583 0.437487 -180 0 0 0.415573 0.437477 L56.28 90.14 a0.415583 0.437487 -180 0 0 0.415573
							 -0.437477 L56.69 81.18 a0.415583 0.437487 -180 0 0 -0.415573 -0.437477 L0.42 80.75 a0.415583 0.437487
							 -180 0 0 -0.415573 0.437477 L0 89.7 Z" class="st9"/>
			</g>
			<g id="shape7813-21" transform="translate(38.1452,-6.26283)">
				<title>rect900</title>
				<rect x="0" y="61.038" width="7.26159" height="29.1037" class="st10"/>
			</g>
			<g id="shape7814-23" transform="translate(31.3211,-6.26284)">
				<title>rect900-3</title>
				<rect x="0" y="74.8531" width="4.54943" height="15.2887" class="st11"/>
			</g>
			<g id="shape7815-25" transform="translate(26.3342,-6.26284)">
				<title>rect900-3-7</title>
				<rect x="0" y="81.9448" width="2.88714" height="8.19694" class="st12"/>
			</g>
			<g id="shape7816-27" transform="translate(22.0472,-6.26284)">
				<title>rect900-3-7-6</title>
				<rect x="0" y="85.4446" width="2.44969" height="4.69712" class="st13"/>
			</g>
			<g id="shape7817-29" transform="translate(18.4602,-6.26284)">
				<title>rect900-3-7-6-2</title>
				<rect x="0" y="87.2011" width="1.92476" height="2.94067" class="st14"/>
			</g>
			<g id="shape7818-31" transform="translate(15.2231,-6.26284)">
				<title>rect900-3-7-6-2-7</title>
				<rect x="0" y="88.2997" width="1.74978" height="1.84201" class="st15"/>
			</g>
			<g id="shape7819-33" transform="translate(3.54308,-36.8132)">
				<title>path977</title>
				<ellipse cx="4.88726" cy="84.4759" rx="4.88726" ry="5.66586" class="st16"/>
			</g>
			<g id="shape7820-35" transform="translate(0,-34.5253)">
				<title>rect1203</title>
				<rect x="0" y="82.485" width="56.6929" height="7.65671" class="st17"/>
			</g>
			<g id="shape7821-37" transform="translate(3.8524,-45.3446)">
				<title>path981</title>
				<ellipse cx="1.33008" cy="88.7415" rx="1.33008" ry="1.40018" class="st18"/>
			</g>
			<g id="shape7822-39" transform="translate(8.02824,-45.312)">
				<title>path981-6</title>
				<ellipse cx="1.33008" cy="88.7415" rx="1.33008" ry="1.40018" class="st18"/>
			</g>
			<g id="shape7823-41" transform="translate(12.1731,-45.3772)">
				<title>path981-6-3</title>
				<ellipse cx="1.33008" cy="88.7415" rx="1.33008" ry="1.40018" class="st18"/>
			</g>
		</g>
	</g>
</svg>
